X: 14535
T: Gan Ainm
R: reel
M: 4/4
K: Dmajor
|:F2 DF E2 DE|F2 DF E2 DE|F2 DF E2 DE|F2 A2 B2 A2|
F2 DF E2 DE|F2 DF E2 DE|F2 DF ED C2|D8:|
|:d4 c4|B4 A4|F2 DF E2 DE|F2 A2 B2 A2|
d4 c4|B4 A4|F2 DF ED C2|D8:|

